home/.icons/Gruvbox-Plus-Dark/apps/16/ancestris.svg

<svg width="16" height="16" version="1.1" xmlns="http://www.w3.org/2000/svg">
  <defs>
    <style type="text/css" id="current-color-scheme">.ColorScheme-Text { color:#ebdbb2; } .ColorScheme-Highlight { color:#458588; }</style>
  </defs>
  <path class="ColorScheme-Text" fill="currentColor" d="m7.499 1c-0.511 0-0.99 0.22-1.322 0.602-0.875-0.195-1.675 0.393-1.868 1.194-0.188-0.078-0.389-0.118-0.593-0.119-0.879 0-1.595 0.72-1.595 1.604 0 0.038 6e-3 0.071 9e-3 0.11-0.646 0.209-1.112 0.819-1.112 1.522 0 0.782 0.567 1.435 1.304 1.577-0.108 0.207-0.176 0.432-0.201 0.665-0.668 0.205-1.123 0.823-1.121 1.522 0 0.925 0.779 1.689 1.723 1.604 0.213 0.642 0.813 1.094 1.504 1.094 0.479 0 0.919-0.215 1.221-0.583 0.133 0.027 0.26 0.045 0.383 0.045 0.357-1e-3 0.708-0.092 1.021-0.264 0.448 0.151 0.94 0.101 1.349-0.137 0.233 0.198 0.528 0.301 0.838 0.301 0.389 2e-3 0.758-0.172 1.003-0.474 0.492 0.135 1.026 0.067 1.476-0.182 0.293 0.469 0.806 0.754 1.358 0.756 0.88 0 1.595-0.72 1.595-1.604 1e-3 -0.441-0.181-0.863-0.501-1.167 0.613-0.23 1.03-0.826 1.03-1.503 0-0.726-0.491-1.36-1.194-1.541-0.146-0.537-0.56-0.961-1.094-1.121 0.083-0.193 0.127-0.401 0.128-0.611 0-0.884-0.716-1.604-1.595-1.604-0.275-2e-3 -0.545 0.067-0.784 0.201-0.278-0.479-0.786-0.777-1.34-0.784-0.263-0.666-0.906-1.104-1.623-1.103h1e-3zm0.647 11.1c-0.248 0.091-0.511 0.137-0.775 0.136-0.156 1e-3 -0.312-0.014-0.465-0.045-0.037 0.016-0.07 0.03-0.109 0.045 0.023 0.218 0.036 0.46 0.036 0.72 0 0.751-0.462 0.857-1.23 0.939-0.404 0.043-0.756 0.081-0.921 0.355-0.093 0.157-0.098 0.347-9e-3 0.566 0.045 0.11 0.155 0.182 0.274 0.182h6.097c0.162 0 0.292-0.13 0.292-0.292 0-0.553-0.565-0.588-0.902-0.61-0.596-0.039-0.96-0.106-0.976-0.857-3e-3 -0.16 0.014-0.573 0.037-0.984-0.151 0.038-0.298 0.072-0.456 0.072-0.312-1e-3 -0.619-0.079-0.893-0.228v1e-3z"/>
</svg>

<svg xmlns="http://www.w3.org/2000/svg" style="isolation:isolate" width="16" height="16" viewBox="0 0 16 16">
 <defs>
  <style id="current-color-scheme" type="text/css">
   .ColorScheme-Text { color:#ebdbb2; } .ColorScheme-Highlight { color:#458588; }
  </style>
  <linearGradient id="arrongin" x1="0%" x2="0%" y1="0%" y2="100%">
   <stop offset="0%" style="stop-color:#d79921; stop-opacity:1"/>
   <stop offset="100%" style="stop-color:#b57614; stop-opacity:1"/>
  </linearGradient>
  <linearGradient id="aurora" x1="0%" x2="0%" y1="0%" y2="100%">
   <stop offset="0%" style="stop-color:#83a598; stop-opacity:1"/>
   <stop offset="100%" style="stop-color:#b16286; stop-opacity:1"/>
  </linearGradient>
  <linearGradient id="fitdance" x1="0%" x2="0%" y1="0%" y2="100%">
   <stop offset="0%" style="stop-color:#8ec07c; stop-opacity:1"/>
   <stop offset="100%" style="stop-color:#458588; stop-opacity:1"/>
  </linearGradient>
  <linearGradient id="oomox" x1="0%" x2="0%" y1="0%" y2="100%">
   <stop offset="0%" style="stop-color:#458588; stop-opacity:1"/>
   <stop offset="100%" style="stop-color:#928374; stop-opacity:1"/>
  </linearGradient>
  <linearGradient id="rainblue" x1="0%" x2="0%" y1="0%" y2="100%">
   <stop offset="0%" style="stop-color:#b8bb26; stop-opacity:1"/>
   <stop offset="100%" style="stop-color:#076678; stop-opacity:1"/>
  </linearGradient>
  <linearGradient id="sunrise" x1="0%" x2="0%" y1="0%" y2="100%">
   <stop offset="0%" style="stop-color: #fe8019; stop-opacity:1"/>
   <stop offset="100%" style="stop-color: #fabd2f; stop-opacity:1"/>
  </linearGradient>
  <linearGradient id="telinkrin" x1="0%" x2="0%" y1="0%" y2="100%">
   <stop offset="0%" style="stop-color: #83a598; stop-opacity:1"/>
   <stop offset="100%" style="stop-color: #83a598; stop-opacity:1"/>
  </linearGradient>
  <linearGradient id="60spsycho" x1="0%" x2="0%" y1="0%" y2="100%">
   <stop offset="0%" style="stop-color: #fb4934; stop-opacity:1"/>
   <stop offset="25%" style="stop-color: #fabd2f; stop-opacity:1"/>
   <stop offset="50%" style="stop-color: #fe8019; stop-opacity:1"/>
   <stop offset="100%" style="stop-color: #689d6a; stop-opacity:1"/>
  </linearGradient>
  <linearGradient id="90ssummer" x1="0%" x2="0%" y1="0%" y2="100%">
   <stop offset="0%" style="stop-color: #b16286; stop-opacity:1"/>
   <stop offset="20%" style="stop-color: #8ec07c; stop-opacity:1"/>
   <stop offset="50%" style="stop-color: #fabd2f; stop-opacity:1"/>
   <stop offset="100%" style="stop-color: #458588; stop-opacity:1"/>
  </linearGradient>
  <linearGradient id="cyberneon" x1="0%" x2="0%" y1="0%" y2="100%">
    <stop offset="0" style="stop-color:#83a598; stop-opacity:1"/>
    <stop offset="1" style="stop-color:#b16286; stop-opacity:1"/>
  </linearGradient>
  <clipPath id="_clipPath_yYr2Jtc5GcwZoxCkDQTDIEKXT779e9bU">
   <rect width="16" height="16"/>
  </clipPath>
 </defs>
 <g clip-path="url(#_clipPath_yYr2Jtc5GcwZoxCkDQTDIEKXT779e9bU)">
  <rect style="fill:currentColor" class="ColorScheme-Text" width="4.625" height="3.594" x="16.34" y=".34" transform="matrix(1,0,0,1,0,0)"/>
  <path style="fill:currentColor" class="ColorScheme-Text" d="M 7.499 1 C 6.988 1 6.509 1.22 6.177 1.602 C 5.302 1.407 4.502 1.995 4.309 2.796 C 4.121 2.718 3.92 2.678 3.716 2.677 C 2.837 2.677 2.121 3.397 2.121 4.281 C 2.121 4.319 2.127 4.352 2.13 4.391 C 1.484 4.6 1.018 5.21 1.018 5.913 C 1.018 6.695 1.585 7.348 2.322 7.49 C 2.214 7.697 2.146 7.922 2.121 8.155 C 1.453 8.36 0.998 8.978 1 9.677 C 1 10.602 1.779 11.366 2.723 11.281 C 2.936 11.923 3.536 12.375 4.227 12.375 C 4.706 12.375 5.146 12.16 5.448 11.792 C 5.581 11.819 5.708 11.837 5.831 11.837 C 6.188 11.836 6.539 11.745 6.852 11.573 C 7.3 11.724 7.792 11.674 8.201 11.436 C 8.434 11.634 8.729 11.737 9.039 11.737 C 9.428 11.739 9.797 11.565 10.042 11.263 C 10.534 11.398 11.068 11.33 11.518 11.081 C 11.811 11.55 12.324 11.835 12.876 11.837 C 13.756 11.837 14.471 11.117 14.471 10.233 C 14.472 9.792 14.29 9.37 13.97 9.066 C 14.583 8.836 15 8.24 15 7.563 C 15 6.837 14.509 6.203 13.806 6.022 C 13.66 5.485 13.246 5.061 12.712 4.901 C 12.795 4.708 12.839 4.5 12.84 4.29 C 12.84 3.406 12.124 2.686 11.245 2.686 C 10.97 2.684 10.7 2.753 10.461 2.887 C 10.183 2.408 9.675 2.11 9.121 2.103 C 8.858 1.437 8.215 0.999 7.498 1 L 7.499 1 Z M 8.146 12.102 C 7.898 12.193 7.635 12.239 7.371 12.238 C 7.215 12.239 7.059 12.224 6.906 12.193 C 6.869 12.209 6.836 12.223 6.797 12.238 C 6.82 12.456 6.833 12.698 6.833 12.958 C 6.833 13.709 6.371 13.815 5.603 13.897 C 5.199 13.94 4.847 13.978 4.682 14.252 C 4.589 14.409 4.584 14.599 4.673 14.818 C 4.718 14.928 4.828 15 4.947 15 L 11.044 15 C 11.206 15 11.336 14.87 11.336 14.708 C 11.336 14.155 10.771 14.12 10.434 14.098 C 9.838 14.059 9.474 13.992 9.458 13.241 C 9.455 13.081 9.472 12.668 9.495 12.257 C 9.344 12.295 9.197 12.329 9.039 12.329 C 8.727 12.328 8.42 12.25 8.146 12.101 L 8.146 12.102 Z"/>
 </g>
</svg>
